!! 00000] TT[WS
!!!OTL: Lihongtai angua
!!!ARE: Asia, China,ÿShanxi piantian
!! Ethnic Group: Han
!! WI, 61 (2)
!!!SCT: J0070
!!!YEM: Copyright 1995, estate of Helmut Schaffrath.
**kern
*ICvox
*Ivox
*M2/4
*k[b-]
*F:
{8dd
8dd
8cc
8a
=1
8dd
8dd
8cc
8a
=2
4cc
8dd
8a
=3
8g
8f
4d}
=4
{8ff
8ff
8ee
8dd
=5
8cc
8cc
8a
8g
=6
8cc
8f
8g
8d
=7
2c}
==
!!!AGN: Xiaodiao. Laodong, Zhongzhi
!!!ONB: ESAC (Essen Associative Code) Database: CHINA
!!!AMT: simple duple
!!!AIN: vox
!!!EED: Helmut Schaffrath
!!!EEV: 1.0
*-
